ui/StatusQ/src/assets/img/icons/rotate.svg

<svg fill="none" height="24" viewBox="0 0 24 24" width="24" xmlns="http://www.w3.org/2000/svg"><g fill="#000"><path d="m8.85365 18.7033c-.33142-.2485-.8036-.2536-1.09649.0393-.2929.2929-.29522.7716.02818 1.0304 1.15494.9243 2.62016 1.477 4.21446 1.477 3.7279 0 6.75-3.0221 6.75-6.75v-.4824c0-.4455.5386-.6686.8536-.3536l.8663.8663c.2929.2929.7677.2929 1.0606 0s.2929-.7677 0-1.0606l-3-3c-.2929-.2929-.7677-.2929-1.0606 0l-3 3c-.2929.2929-.2929.7677 0 1.0606s.7677.2929 1.0606 0l.8659-.8659c.315-.315.8536-.0919.8536.3536v.482c0 2.8995-2.3505 5.25-5.25 5.25-1.1802 0-2.26937-.3894-3.14615-1.0467z"/><path d="m6.53033 13.5303 3-3c.29289-.2929.29289-.76774 0-1.06063s-.76777-.29289-1.06066 0l-.86689.86693c-.29985.2998-.81254.0874-.81254-.3366 0-2.8995 2.35051-5.25 5.24996-5.25 1.1802 0 2.2694.3894 3.1462 1.04673.3314.24846.8036.25352 1.0965-.03937s.2952-.77152-.0282-1.03033c-1.1549-.9243-2.6202-1.47703-4.2145-1.47703-3.72788 0-6.74996 3.02208-6.74996 6.75v.0225c0 .4454-.53857.6685-.85355.3535l-.90636-.90633c-.29289-.29289-.76777-.29289-1.06066 0s-.29289.76773 0 1.06063l3 3c.29289.2929.76777.2929 1.06066 0z"/></g></svg>

<svg width="24" height="24" viewBox="0 0 24 24" fill="none" xmlns="http://www.w3.org/2000/svg">
<path d="M8.85365 18.7033C8.52223 18.4548 8.05005 18.4497 7.75716 18.7426C7.46426 19.0355 7.46194 19.5142 7.78534 19.773C8.94028 20.6973 10.4055 21.25 11.9998 21.25C15.7277 21.25 18.7498 18.2279 18.7498 14.5V14.0176C18.7498 13.5721 19.2884 13.349 19.6034 13.664L20.4697 14.5303C20.7626 14.8232 21.2374 14.8232 21.5303 14.5303C21.8232 14.2374 21.8232 13.7626 21.5303 13.4697L18.5303 10.4697C18.2374 10.1768 17.7626 10.1768 17.4697 10.4697L14.4697 13.4697C14.1768 13.7626 14.1768 14.2374 14.4697 14.5303C14.7626 14.8232 15.2374 14.8232 15.5303 14.5303L16.3962 13.6644C16.7112 13.3494 17.2498 13.5725 17.2498 14.018V14.5C17.2498 17.3995 14.8993 19.75 11.9998 19.75C10.8196 19.75 9.73043 19.3606 8.85365 18.7033Z" fill="black"/>
<path d="M6.53033 13.5303L9.53033 10.5303C9.82322 10.2374 9.82322 9.76256 9.53033 9.46967C9.23744 9.17678 8.76256 9.17678 8.46967 9.46967L7.60278 10.3366C7.30293 10.6364 6.79024 10.424 6.79024 10C6.79024 7.1005 9.14075 4.75 12.0402 4.75C13.2204 4.75 14.3096 5.1394 15.1864 5.79673C15.5178 6.04519 15.99 6.05025 16.2829 5.75736C16.5758 5.46447 16.5781 4.98584 16.2547 4.72703C15.0998 3.80273 13.6345 3.25 12.0402 3.25C8.31232 3.25 5.29024 6.27208 5.29024 10V10.0225C5.29024 10.4679 4.75167 10.691 4.43669 10.376L3.53033 9.46967C3.23744 9.17678 2.76256 9.17678 2.46967 9.46967C2.17678 9.76256 2.17678 10.2374 2.46967 10.5303L5.46967 13.5303C5.76256 13.8232 6.23744 13.8232 6.53033 13.5303Z" fill="black"/>
</svg>
